X: 228
T:Magnificat tertii toni / Et exsultavit spiritus me / Quia fecit mihi magna / Fecit potentiam / Esurientes implevit boni / Sicut locutus est / Sicut erat in principi
N: Derived from Jos2001-Magnificat_Tertii_toni.krn
C: Josquin des Prez
%%abc-version 2.0
%%abcx-abcm2ps-target-version 5.9.1 (29 Sep 2008)
%%abc-creator hum2abc beta
%%abcx-conversion-date 2019/02/12 16:15:50
%%abc-edited-by Jesse Rodin
%%abc-edited-by Jesse Rodin; Victoria Chang 2011/05/24
%%abcx-initial-encoding-date 2011/05/24/
%%humdrum-veritas 2217492841
%%humdrum-veritas-data 3709866600
%%linebreak <none>
%%barnumbers 0
L: 1/4
M: 2/1
Q: 1/2=120
%%staves [1 2 3 4]
V: 1 clef=treble
V: 2 clef=treble-8
V: 3 clef=treble-8
V: 4 clef=bass
K: C
[V:1] D8- | 
[V:2] z8 | 
[V:3] G3AB2c2- | 
[V:4] z8 | 
[V:1] D4E4- | 
[V:2] z8 | 
[V:3] c2B2c2e2- | 
[V:4] z8 | 
[V:1] E8 | 
[V:2] z8 | 
[V:3] edcBA4 | 
[V:4] z8 | 
[V:1] G6FE | 
[V:2] G3AB2c2- | 
[V:3] G8 | 
[V:4] G,,8- | 
[V:1] D4C2c2- | 
[V:2] c2B2c2e2- | 
[V:3] z8 | 
[V:4] G,,4A,,4- | 
[V:1] cBAG(3A2E2F2 | 
[V:2] edcBA4 | 
[V:3] z8 | 
[V:4] A,,8 | 
[V:1] G4z4 | 
[V:2] GFEDC2D2 | 
[V:3] G8- | 
[V:4] C,3D,E,2F,2- | 
[V:1] z8 | 
[V:2] C4z2c2- | 
[V:3] G4A4- | 
[V:4] F,2E,2F,2A,2- | 
[V:1] z8 | 
[V:2] cBAGF3E | 
[V:3] A8 | 
[V:4] A,G,F,E,D,4 | 
[V:1] E3FG2A2 | 
[V:2] G4z2F2 | 
[V:3] c8 | 
[V:4] C,3D,E,2F,2 | 
[V:1] G2F4E2 | 
[V:2] G2A2G4 | 
[V:3] c8 | 
[V:4] E,2F,2C,4 | 
[V:1] F8 | 
[V:2] F3GA3B | 
[V:3] c8 | 
[V:4] F,,4z2F,2- | 
[V:1] z8 | 
[V:2] c2_B4A2 | 
[V:3] z8 | 
[V:4] F,E,D,2C,4 | 
[V:1] F8 | 
[V:2] _B6AG | 
[V:3] d8 | 
[V:4] _B,,4z4 | 
[V:1] E3FG2A2 | 
[V:2] G4z2F2 | 
[V:3] c8 | 
[V:4] C,3D,E,2F,2 | 
[V:1] G2F4E2 | 
[V:2] G2A2G4 | 
[V:3] c8 | 
[V:4] E,2F,2C,4 | 
[V:1] F3GA_BA2- | 
[V:2] F2A3GFE | 
[V:3] c4A4 | 
[V:4] F,,4z4 | 
[V:1] AGFEF4 | 
[V:2] D4z4 | 
[V:3] A8 | 
[V:4] D,8 | 
[V:1] E4z2G2- | 
[V:2] G3FG3F | 
[V:3] c8 | 
[V:4] C,8 | 
[V:1] GFG3FED | 
[V:2] EDC2z2G2 | 
[V:3] z8 | 
[V:4] C,4C,4 | 
[V:1] C2c4BA | 
[V:2] A2A4GF | 
[V:3] z8 | 
[V:4] A,,4A,,4 | 
[V:1] G4E2G2- | 
[V:2] E6e2- | 
[V:3] z4c4 | 
[V:4] C,4z4 | 
[V:1] GFE4DC | 
[V:2] edc4BA | 
[V:3] c8 | 
[V:4] z8 | 
[V:1] B,2A,2B,4 | 
[V:2] G2A4^G2 | 
[V:3] d8 | 
[V:4] z8 | 
[V:1] A,4z2E2 | 
[V:2] A2GFGFED | 
[V:3] c8 | 
[V:4] z4C,4 | 
[V:1] E3FG2A2- | 
[V:2] C4z2e2- | 
[V:3] z8 | 
[V:4] C,8 | 
[V:1] AGFEF4 | 
[V:2] e2dcB3A | 
[V:3] z8 | 
[V:4] D,8 | 
[V:1] E3FG2A2 | 
[V:2] c4z2c2- | 
[V:3] c4c4 | 
[V:4] C,8 | 
[V:1] G2c4BA | 
[V:2] cBA4GF | 
[V:3] c4A4 | 
[V:4] z8 | 
[V:1] G2A4^G2 | 
[V:2] E2A2E4 | 
[V:3] c4B4 | 
[V:4] z8 | 
[V:1] A2GFE3F | 
[V:2] e3fgfed | 
[V:3] A2c4BA | 
[V:4] z4C,4 | 
[V:1] GFEDC2c2- | 
[V:2] c2BAGFED | 
[V:3] G2A2E2G2 | 
[V:4] C,4C,4 | 
[V:1] c2BAG4- | 
[V:2] E2C2z2E2- | 
[V:3] A2c4BA | 
[V:4] A,,4C,4 | 
[V:1] G2FED4 | 
[V:2] E2DCD4 | 
[V:3] G2A4^G2 | 
[V:4] B,,8 | 
[V:1] C4z4 | 
[V:2] E4z2C2 | 
[V:3] A4E4 | 
[V:4] A,,8 | 
[V:1] C3DE2F2- | 
[V:2] F4E2D2- | 
[V:3] A4G2A2- | 
[V:4] z8 | 
[V:1] FEE4D2 | 
[V:2] DEC2D4 | 
[V:3] AGE2F4 | 
[V:4] z8 | 
[V:1] E8- | 
[V:2] A3GA2B2 | 
[V:3] E8- | 
[V:4] A,,8- | 
[V:1] E8 ||  
[V:2] c8 ||  
[V:3] E8 ||  
[V:4] A,,8 ||  
[V:1]  [K:C] [K:clef=treble][M:2/1]z8 | 
[V:2]  [K:C] [K:clef=treble-8][M:2/1]G4A2c2 | 
[V:3]  [K:C] [K:clef=treble-8][M:2/1]z8 | 
[V:4]  [K:C] [K:clef=bass][M:2/1]z8 | 
[V:1] z8 | 
[V:2] B2A2BAGF | 
[V:3] z8 | 
[V:4] z8 | 
[V:1] G4A2c2 | 
[V:2] E2e2f2e2- | 
[V:3] z8 | 
[V:4] z8 | 
[V:1] B2A2BAGF | 
[V:2] edc2dcAB | 
[V:3] z8 | 
[V:4] z8 | 
[V:1] E4z2A2 | 
[V:2] c4B2A2 | 
[V:3] z8 | 
[V:4] C,4D,2F,2 | 
[V:1] G2F2GFED | 
[V:2] (3B2c2d2B2E2 | 
[V:3] z4G4 | 
[V:4] E,2D,2E,D,C,B,, | 
[V:1] C2E2D2F2- | 
[V:2] E4z4 | 
[V:3] A2c2B2d2- | 
[V:4] A,,4z4 | 
[V:1] FEDCD4 | 
[V:2] z4G4 | 
[V:3] dcc4B2 | 
[V:4] z8 | 
[V:1] C4z2G2- | 
[V:2] A2c2B2d2- | 
[V:3] c4z4 | 
[V:4] A,,4G,,2G,2 | 
[V:1] GFA4GF | 
[V:2] dcc4B2 | 
[V:3] z8 | 
[V:4] E,2F,2D,4 | 
[V:1] EFGABcd2- | 
[V:2] c4B2G2 | 
[V:3] z2c2d2B2 | 
[V:4] C,4z4 | 
[V:1] dcc4B2 | 
[V:2] A2c2G2g2 | 
[V:3] c2e2d4 | 
[V:4] z4z2G,2 | 
[V:1] c3BG4 | 
[V:2] e2f3dg2- | 
[V:3] c4z4 | 
[V:4] A,2F,2G,2_B,2 | 
[V:1] A2c2B2d2- | 
[V:2] g2^f2g4- | 
[V:3] z2c2d2B2 | 
[V:4] A,4G,4 | 
[V:1] dcc4B2 | 
[V:2] g2g2a2gf | 
[V:3] c2e2d4 | 
[V:4] z2E,2F,2G,2 | 
[V:1] c2Ac2BA2- | 
[V:2] e4d2c2 | 
[V:3] c8 | 
[V:4] C,4z2C,2 | 
[V:1] A2^G2A2c2- | 
[V:2] B4A2a2- | 
[V:3] z8 | 
[V:4] D,2E,2A,,4 | 
[V:1] cBA2G4 | 
[V:2] agf4e2 | 
[V:3] z8 | 
[V:4] z2A,,2B,,2C,2 | 
[V:1] z2c2A2c2- | 
[V:2] f4z2F2- | 
[V:3] c2c2c2c2 | 
[V:4] F,,4z4 | 
[V:1] cBA4^G2 | 
[V:2] FGA2E4 | 
[V:3] A2c2B4 | 
[V:4] z8 | 
[V:1] A4z2A2 | 
[V:2] A2c2d2f2- | 
[V:3] A4z4 | 
[V:4] F,2F,2F,2F,2 | 
[V:1] A2A2G2E2 | 
[V:2] fed4^c2 | 
[V:3] z2A2B2G2 | 
[V:4] D,2F,2E,4 | 
[V:1] FEA4^G2 | 
[V:2] d2e2f2e2 | 
[V:3] A2c2B4 | 
[V:4] D,2C,2D,2E,2 | 
[V:1] A4z2c2- | 
[V:2] c2f3ee2- | 
[V:3] A4z4 | 
[V:4] A,,2D,2E,2C,2 | 
[V:1] cBA2G2E2 | 
[V:2] edd4^c2 | 
[V:3] z2A2B2G2 | 
[V:4] D,2F,2E,4 | 
[V:1] FEA4^G2 | 
[V:2] d2e2f2e2 | 
[V:3] A2c2B4 | 
[V:4] D,2C,2D,2E,2 | 
[V:1] A8- | 
[V:2] c2f4ed | 
[V:3] A8- | 
[V:4] A,,2D,4C,B,, | 
[V:1] A8- | 
[V:2] f2e2c3d | 
[V:3] A8- | 
[V:4] D,2C,2A,,4 | 
[V:1] A8- | 
[V:2] e2f4ed | 
[V:3] A8- | 
[V:4] z2D,4C,B,, | 
[V:1] A8- | 
[V:2] f2e4d2 | 
[V:3] A8- | 
[V:4] D,2C,2D,4 | 
[V:1] A8 ||  
[V:2] e8 ||  
[V:3] A8 ||  
[V:4] A,,8 ||  
[V:1]  [K:C] [K:clef=treble][M:2/1]G8 | 
[V:2]  [K:C] [K:clef=treble-8][M:2/1]G2ABc2c2- | 
[V:3]  [K:C] [K:clef=treble-8][M:2/1]z8 | 
[V:4]  [K:C] [K:clef=bass][M:2/1]z8 | 
[V:1] A8 | 
[V:2] c2B2c2d2 | 
[V:3] z8 | 
[V:4] z8 | 
[V:1] c8 | 
[V:2] e4A4 | 
[V:3] z8 | 
[V:4] C,2D,E,F,2F,2- | 
[V:1] c4c4 | 
[V:2] z2e3dcB | 
[V:3] z8 | 
[V:4] F,2E,2F,2G,2 | 
[V:1] c4z4 | 
[V:2] c4d3c | 
[V:3] z8 | 
[V:4] A,4D,4 | 
[V:1] z8 | 
[V:2] BAc3BAG | 
[V:3] z8 | 
[V:4] z2A,3G,F,E, | 
[V:1] z8 | 
[V:2] A4G2B2 | 
[V:3] z8 | 
[V:4] F,4G,3F, | 
[V:1] z8 | 
[V:2] c2d3cc2- | 
[V:3] z8 | 
[V:4] E,D,F,3E,D,C, | 
[V:1] z4c4 | 
[V:2] c2B2c4 | 
[V:3] z8 | 
[V:4] D,4C,2C2- | 
[V:1] d8 | 
[V:2] z8 | 
[V:3] z8 | 
[V:4] C2B,A,B,4 | 
[V:1] c8 | 
[V:2] e3dcBc2- | 
[V:3] z8 | 
[V:4] C3B,A,G,A,2- | 
[V:1] c8 | 
[V:2] cBAGA4 | 
[V:3] z8 | 
[V:4] A,G,F,E,F,4 | 
[V:1] B6A2- | 
[V:2] G4z4 | 
[V:3] z8 | 
[V:4] G,3F,E,D,F,2- | 
[V:1] AGc4B2 | 
[V:2] z8 | 
[V:3] z8 | 
[V:4] F,E,D,C,D,4 | 
[V:1] c8 | 
[V:2] G3FEDF2- | 
[V:3] z8 | 
[V:4] C,D,E,F,G,2A,2- | 
[V:1] z8 | 
[V:2] FEDCD4 | 
[V:3] z8 | 
[V:4] A,G,C4B,2 | 
[V:1] c4c4 | 
[V:2] C4z4 | 
[V:3] z8 | 
[V:4] C2A,4G,F, | 
[V:1] c4c4 | 
[V:2] CDEFG2A2- | 
[V:3] z8 | 
[V:4] E,2C,4F,2- | 
[V:1] c4d4 | 
[V:2] AGc4B2 | 
[V:3] z8 | 
[V:4] F,E,A,2G,4 | 
[V:1] c8 | 
[V:2] c3de4 | 
[V:3] z8 | 
[V:4] C,4C,4 | 
[V:1] z8 | 
[V:2] A2c4BA | 
[V:3] z8 | 
[V:4] C,4A,,4 | 
[V:1] z8 | 
[V:2] G2A4^G2 | 
[V:3] z8 | 
[V:4] C,4B,,4 | 
[V:1] c4c4 | 
[V:2] A4z4 | 
[V:3] z8 | 
[V:4] A,,3B,,C,D,E,2 | 
[V:1] c4A4 | 
[V:2] z8 | 
[V:3] z8 | 
[V:4] F,2E,D,C,2D,2 | 
[V:1] c4B4 | 
[V:2] z8 | 
[V:3] z8 | 
[V:4] A,,2A,4^G,2 | 
[V:1] A4z2A2 | 
[V:2] c4c4 | 
[V:3] z8 | 
[V:4] A,2G,F,E,2F,2 | 
[V:1] G2E2F2E2- | 
[V:2] c4A4 | 
[V:3] z8 | 
[V:4] E,2C,2D,2C,2 | 
[V:1] E2A4^G2 | 
[V:2] c4B4 | 
[V:3] z8 | 
[V:4] A,,B,,C,D,E,4 | 
[V:1] A8 ||  
[V:2] A8 ||  
[V:3] z8 ||  
[V:4] A,,8 ||  
[V:1]  [K:C] [K:clef=treble][M:2/1]z8 | 
[V:2]  [K:C] [K:clef=treble-8][M:2/1]z8 | 
[V:3]  [K:C] [K:clef=treble-8][M:2/1]z8 | 
[V:4]  [K:C] [K:clef=bass][M:2/1]C,4D,2F,2- | 
[V:1] z8 | 
[V:2] G4A2c2- | 
[V:3] z8 | 
[V:4] F,2E,2F,2C,2 | 
[V:1] D4E2G2- | 
[V:2] c2B2c2G2 | 
[V:3] z8 | 
[V:4] D,4C,2E,2 | 
[V:1] G2^F2G4 | 
[V:2] A4G2E2 | 
[V:3] z4G4 | 
[V:4] D,4G,,2C,2- | 
[V:1] z4G4- | 
[V:2] C4D4 | 
[V:3] A2c4B2 | 
[V:4] C,B,,A,,2G,,4 | 
[V:1] G2E2C4 | 
[V:2] C4z4 | 
[V:3] c4z2c2- | 
[V:4] z2C,3B,,A,,2 | 
[V:1] D4C2c2- | 
[V:2] G6A2- | 
[V:3] c2B2c4 | 
[V:4] G,,4C,4 | 
[V:1] c2BABAGF | 
[V:2] A2GFG4 | 
[V:3] d4d4 | 
[V:4] z8 | 
[V:1] E4z4 | 
[V:2] z2G4A2- | 
[V:3] c6d2- | 
[V:4] C,3D,E,2F,2- | 
[V:1] z2E2F4 | 
[V:2] AGG4F2 | 
[V:3] dcc4B2 | 
[V:4] F,E,C,2D,4 | 
[V:1] E2C2D4 | 
[V:2] G2c4B2 | 
[V:3] c4z4 | 
[V:4] C,4G,4 | 
[V:1] C4z2c2 | 
[V:2] c4A4 | 
[V:3] z2c2c4 | 
[V:4] C,2C3B,A,2 | 
[V:1] B2A4GF | 
[V:2] z4F4 | 
[V:3] d4c4 | 
[V:4] G,2F,4E,D, | 
[V:1] E2A4^G2 | 
[V:2] G2A2B4 | 
[V:3] c4z4 | 
[V:4] C,2A,,2E,4 | 
[V:1] A4z2E2 | 
[V:2] A2c3BG2 | 
[V:3] c4c4 | 
[V:4] A,,3B,,C,4 | 
[V:1] F2E2z2E2 | 
[V:2] A2GFE4 | 
[V:3] c8 | 
[V:4] F,,2C,3B,,A,,2 | 
[V:1] F2E2F2G2 | 
[V:2] D2z2A2G2- | 
[V:3] A4c4 | 
[V:4] D,2C,2F,,2C,D, | 
[V:1] E2z2E2F2 | 
[V:2] GAB2c2F2 | 
[V:3] B4A4 | 
[V:4] E,F,E,2A,,2D,2 | 
[V:1] E2F2G2A2 | 
[V:2] c2d2e2A2- | 
[V:3] z8 | 
[V:4] z2D,2C,2F,G, | 
[V:1] E2z2E2F2 | 
[V:2] ABc2A3B | 
[V:3] A8- | 
[V:4] A,2A,,2z2D,2 | 
[V:1] E2F2E2F2- | 
[V:2] c2d2A4 | 
[V:3] A8- | 
[V:4] C,A,,D,2C,2D,2- | 
[V:1] FEE4D2 | 
[V:2] D2E2F4 | 
[V:3] A8- | 
[V:4] D,2C,2D,4 | 
[V:1] E8 ||  
[V:2] E8 ||  
[V:3] A8 ||  
[V:4] A,,8 ||  
[V:1]  [K:C] [K:clef=treble][M:2/1]z8 | 
[V:2]  [K:C] [K:clef=treble-8][M:2/1]z8 | 
[V:3]  [K:C] [K:clef=treble-8][M:2/1]z4G4 | 
[V:4]  [K:C] [K:clef=bass][M:2/1]z8 | 
[V:1] z8 | 
[V:2] z8 | 
[V:3] A3Bc2d2- | 
[V:4] z8 | 
[V:1] z8 | 
[V:2] z4G4 | 
[V:3] dcc4B2 | 
[V:4] z8 | 
[V:1] z8 | 
[V:2] A3Bc2d2- | 
[V:3] c3BAGF2- | 
[V:4] z8 | 
[V:1] z8 | 
[V:2] dcc4B2 | 
[V:3] F2E2D4 | 
[V:4] z4G,,4 | 
[V:1] z8 | 
[V:2] c3BAGF2- | 
[V:3] C4z4 | 
[V:4] A,,3B,,C,2D,2- | 
[V:1] z8 | 
[V:2] F2E2D4 | 
[V:3] z4F4 | 
[V:4] D,C,C,4B,,2 | 
[V:1] z8 | 
[V:2] C2c4B2 | 
[V:3] E2C2D4 | 
[V:4] C,4z4 | 
[V:1] z8 | 
[V:2] c4z4 | 
[V:3] C2E2D2G2- | 
[V:4] C,4B,,2G,,2 | 
[V:1] z8 | 
[V:2] c4B2G2 | 
[V:3] G2^F2G4 | 
[V:4] A,,4G,,2G,2- | 
[V:1] z8 | 
[V:2] A4G2G2- | 
[V:3] z2c2B2G2 | 
[V:4] G,2F,2G,2E,2 | 
[V:1] z8 | 
[V:2] G2F2G4 | 
[V:3] A4G2c2- | 
[V:4] z2F,2E,2C,2 | 
[V:1] z8 | 
[V:2] z2f2e2c2 | 
[V:3] c2B2c4 | 
[V:4] D,4C,2C2- | 
[V:1] z8 | 
[V:2] d4c2e2 | 
[V:3] z4c4 | 
[V:4] C2B,2C4 | 
[V:1] z8 | 
[V:2] d2g4^f2 | 
[V:3] B2G2A4 | 
[V:4] z4C,2D,2 | 
[V:1] z8 | 
[V:2] g4z2c2 | 
[V:3] G2G4^F2 | 
[V:4] B,,2C,2A,,4 | 
[V:1] z8 | 
[V:2] B2G2A4 | 
[V:3] G4z2c2 | 
[V:4] G,,2G,4^F,2 | 
[V:1] z8 | 
[V:2] G4z4 | 
[V:3] B3cdef2- | 
[V:4] G,6A,2- | 
[V:1] z8 | 
[V:2] z8 | 
[V:3] fee4d2 | 
[V:4] A,G,E,2F,4 | 
[V:1] z8 | 
[V:2] G3ABcd2- | 
[V:3] e4z4 | 
[V:4] E,6F,2- | 
[V:1] z8 | 
[V:2] dcc4B2 | 
[V:3] z4f4 | 
[V:4] F,E,C,2D,4 | 
[V:1] z8 | 
[V:2] c4z4 | 
[V:3] e6d2- | 
[V:4] C,3D,E,F,G,2- | 
[V:1] z8 | 
[V:2] z4f4 | 
[V:3] dcc4B2 | 
[V:4] G,C,E,2D,4 | 
[V:1] z8 | 
[V:2] e6d2- | 
[V:3] c2CDEFG2- | 
[V:4] C,4z2B,,2- | 
[V:1] z8 | 
[V:2] dcc4B2 | 
[V:3] GCE2D4 | 
[V:4] B,,2C,2G,,4 | 
[V:1] z8 | 
[V:2] c2CDEFG2- | 
[V:3] C4z4 | 
[V:4] A,,3B,,C,D,E,2- | 
[V:1] z8 | 
[V:2] GEA4^G2 | 
[V:3] z8 | 
[V:4] E,A,,C,2B,,4 | 
[V:1] z8 | 
[V:2] A3Bc2d2- | 
[V:3] c6B2- | 
[V:4] A,,4z2G,2- | 
[V:1] z8 | 
[V:2] dcBAB4 | 
[V:3] BAA4^G2 | 
[V:4] G,2A,2E,4 | 
[V:1] z8 | 
[V:2] A2c3BB2- | 
[V:3] A3Bc2d2- | 
[V:4] A,,6G,,2- | 
[V:1] z8 | 
[V:2] BAA4^G2 | 
[V:3] dcBAB4 | 
[V:4] G,,2A,,2E,4 | 
[V:1] z8 | 
[V:2] A3GEFG2- | 
[V:3] A2c3BB2- | 
[V:4] A,,3B,,C,D,E,2- | 
[V:1] z8 | 
[V:2] GFE4D2 | 
[V:3] BAA4^G2 | 
[V:4] E,A,,C,2B,,4 | 
[V:1] z8 ||  
[V:2] E8 ||  
[V:3] A8 ||  
[V:4] A,,8 ||  
[V:1]  [K:C] [K:clef=treble][M:2/1]D6D2 | 
[V:2]  [K:C] [K:clef=treble-8][M:2/1]z8 | 
[V:3]  [K:C] [K:clef=treble-8][M:2/1]D8 | 
[V:4]  [K:C] [K:clef=bass][M:2/1]z8 | 
[V:1] B,2E4DC | 
[V:2] z8 | 
[V:3] E8 | 
[V:4] z8 | 
[V:1] E2D2B,2C2 | 
[V:2] z8 | 
[V:3] G8 | 
[V:4] z8 | 
[V:1] D2C4B,2 | 
[V:2] G6G2 | 
[V:3] G8 | 
[V:4] G,,8 | 
[V:1] C4z4 | 
[V:2] E2A4GF | 
[V:3] z8 | 
[V:4] A,,8 | 
[V:1] z8 | 
[V:2] A2G2E2F2 | 
[V:3] z8 | 
[V:4] C,8 | 
[V:1] G6G2 | 
[V:2] G4z2E2 | 
[V:3] G8 | 
[V:4] C,8 | 
[V:1] E2A4GF | 
[V:2] C2F4ED | 
[V:3] A8 | 
[V:4] z8 | 
[V:1] A2G2E2F2 | 
[V:2] F2E2C2D2 | 
[V:3] c8 | 
[V:4] z8 | 
[V:1] G4E4 | 
[V:2] E4z2G2 | 
[V:3] c8 | 
[V:4] C,4C,4 | 
[V:1] z4z2G2 | 
[V:2] G2G2A3G | 
[V:3] z8 | 
[V:4] C,4C,4 | 
[V:1] G2G2A2GF | 
[V:2] E4z2G2 | 
[V:3] c4c4 | 
[V:4] C,8 | 
[V:1] E4z2G2 | 
[V:2] G2G2A3G | 
[V:3] c4c4 | 
[V:4] z8 | 
[V:1] G2G2AGFE | 
[V:2] E4C2c2- | 
[V:3] c8 | 
[V:4] C,8 | 
[V:1] D2E2F4 | 
[V:2] c2BAB4 | 
[V:3] z8 | 
[V:4] D,8 | 
[V:1] E8 | 
[V:2] c4z2A2- | 
[V:3] c8 | 
[V:4] C,8 | 
[V:1] z8 | 
[V:2] A2^G^F^G4 | 
[V:3] d8 | 
[V:4] B,,8 | 
[V:1] E6D2 | 
[V:2] A2c4BA | 
[V:3] c4z4 | 
[V:4] A,,8 | 
[V:1] E2F2G4 | 
[V:2] G4C2G2- | 
[V:3] c3defe2- | 
[V:4] C,8 | 
[V:1] E4F4 | 
[V:2] G2FED4 | 
[V:3] edc4B2 | 
[V:4] z8 | 
[V:1] E4z4 | 
[V:2] C4z4 | 
[V:3] c4z4 | 
[V:4] A,,8 | 
[V:1] E4E4 | 
[V:2] G4G4 | 
[V:3] c4c4 | 
[V:4] C,8 | 
[V:1] E4E4 | 
[V:2] G4G4 | 
[V:3] c4c4 | 
[V:4] C,4C,4 | 
[V:1] E4z4 | 
[V:2] G4z4 | 
[V:3] c4z4 | 
[V:4] C,4z4 | 
[V:1] E6G2- | 
[V:2] E2G3FED | 
[V:3] c4c4 | 
[V:4] C,8 | 
[V:1] GFEDC2D2 | 
[V:2] C2D2E4 | 
[V:3] c4A3B | 
[V:4] C,4C,4 | 
[V:1] E6DC | 
[V:2] C8 | 
[V:3] c2BAG2A2- | 
[V:4] A,,4C,4 | 
[V:1] D2C2D4 | 
[V:2] z4D4 | 
[V:3] A2^G^F^G4 | 
[V:4] B,,8 | 
[V:1] C3DE2F2- | 
[V:2] E4C2D2- | 
[V:3] A3Bc2A2- | 
[V:4] A,,8 | 
[V:1] FEE4D2 | 
[V:2] DEC2D4 | 
[V:3] AGE2F4 | 
[V:4] z8 | 
[V:1] E8- | 
[V:2] A3GA2B2 | 
[V:3] E8- | 
[V:4] A,,8- | 
[V:1] E8 |]  
[V:2] c8 |]  
[V:3] E8 |]  
[V:4] A,,8 |]  



